src/img/icon_listtype_cards_grey.svg

<?xml version="1.0" encoding="UTF-8" standalone="no"?><!DOCTYPE svg PUBLIC "-//W3C//DTD SVG 1.1//EN" "http://www.w3.org/Graphics/SVG/1.1/DTD/svg11.dtd"><svg width="100%" height="100%" viewBox="0 0 22 22" version="1.1" xmlns="http://www.w3.org/2000/svg" xmlns:xlink="http://www.w3.org/1999/xlink" xml:space="preserve" style="fill-rule:evenodd;clip-rule:evenodd;stroke-linejoin:round;stroke-miterlimit:1.41421;"><path d="M17.857,7.572c0,0.63 -0.512,1.142 -1.143,1.142l-2.286,0c-0.63,0 -1.142,-0.512 -1.142,-1.142l0,-2.286c0,-0.631 0.512,-1.143 1.142,-1.143l2.286,0c0.631,0 1.143,0.512 1.143,1.143l0,2.286Zm-1.143,-4.572l-2.286,0c-1.261,0 -2.285,1.023 -2.285,2.286l0,2.286c0,1.261 1.024,2.285 2.285,2.285l2.286,0c1.263,0 2.286,-1.024 2.286,-2.285l0,-2.286c0,-1.263 -1.023,-2.286 -2.286,-2.286l0,0Zm1.143,13.714c0,0.631 -0.512,1.143 -1.143,1.143l-2.286,0c-0.63,0 -1.142,-0.512 -1.142,-1.143l0,-2.286c0,-0.63 0.512,-1.142 1.142,-1.142l2.286,0c0.631,0 1.143,0.512 1.143,1.142l0,2.286Zm-1.143,-4.571l-2.286,0c-1.261,0 -2.285,1.024 -2.285,2.285l0,2.286c0,1.263 1.024,2.286 2.285,2.286l2.286,0c1.263,0 2.286,-1.023 2.286,-2.286l0,-2.286c0,-1.261 -1.023,-2.285 -2.286,-2.285l0,0Zm-8,-4.571c0,0.63 -0.512,1.142 -1.142,1.142l-2.286,0c-0.631,0 -1.143,-0.512 -1.143,-1.142l0,-2.286c0,-0.631 0.512,-1.143 1.143,-1.143l2.286,0c0.63,0 1.142,0.512 1.142,1.143l0,2.286Zm-1.142,-4.572l-2.286,0c-1.263,0 -2.286,1.023 -2.286,2.286l0,2.286c0,1.261 1.023,2.285 2.286,2.285l2.286,0c1.261,0 2.285,-1.024 2.285,-2.285l0,-2.286c0,-1.263 -1.024,-2.286 -2.285,-2.286l0,0Zm1.142,13.714c0,0.631 -0.512,1.143 -1.142,1.143l-2.286,0c-0.631,0 -1.143,-0.512 -1.143,-1.143l0,-2.286c0,-0.63 0.512,-1.142 1.143,-1.142l2.286,0c0.63,0 1.142,0.512 1.142,1.142l0,2.286Zm-1.142,-4.571l-2.286,0c-1.263,0 -2.286,1.024 -2.286,2.285l0,2.286c0,1.263 1.023,2.286 2.286,2.286l2.286,0c1.261,0 2.285,-1.023 2.285,-2.286l0,-2.286c0,-1.261 -1.024,-2.285 -2.285,-2.285l0,0Z" style="fill:#ccc;"/></svg>

<?xml version="1.0" encoding="UTF-8" standalone="no"?>
<!DOCTYPE svg PUBLIC "-//W3C//DTD SVG 1.1//EN" "http://www.w3.org/Graphics/SVG/1.1/DTD/svg11.dtd">
<svg width="100%" height="100%" viewBox="0 0 22 22" version="1.1" xmlns="http://www.w3.org/2000/svg" xmlns:xlink="http://www.w3.org/1999/xlink" xml:space="preserve" xmlns:serif="http://www.serif.com/" style="fill-rule:evenodd;clip-rule:evenodd;stroke-linejoin:round;stroke-miterlimit:1.41421;">
    <path d="M17.857,7.572C17.857,8.202 17.345,8.714 16.714,8.714L14.428,8.714C13.798,8.714 13.286,8.202 13.286,7.572L13.286,5.286C13.286,4.655 13.798,4.143 14.428,4.143L16.714,4.143C17.345,4.143 17.857,4.655 17.857,5.286L17.857,7.572ZM16.714,3L14.428,3C13.167,3 12.143,4.023 12.143,5.286L12.143,7.572C12.143,8.833 13.167,9.857 14.428,9.857L16.714,9.857C17.977,9.857 19,8.833 19,7.572L19,5.286C19,4.023 17.977,3 16.714,3ZM17.857,16.714C17.857,17.345 17.345,17.857 16.714,17.857L14.428,17.857C13.798,17.857 13.286,17.345 13.286,16.714L13.286,14.428C13.286,13.798 13.798,13.286 14.428,13.286L16.714,13.286C17.345,13.286 17.857,13.798 17.857,14.428L17.857,16.714ZM16.714,12.143L14.428,12.143C13.167,12.143 12.143,13.167 12.143,14.428L12.143,16.714C12.143,17.977 13.167,19 14.428,19L16.714,19C17.977,19 19,17.977 19,16.714L19,14.428C19,13.167 17.977,12.143 16.714,12.143ZM8.714,7.572C8.714,8.202 8.202,8.714 7.572,8.714L5.286,8.714C4.655,8.714 4.143,8.202 4.143,7.572L4.143,5.286C4.143,4.655 4.655,4.143 5.286,4.143L7.572,4.143C8.202,4.143 8.714,4.655 8.714,5.286L8.714,7.572ZM7.572,3L5.286,3C4.023,3 3,4.023 3,5.286L3,7.572C3,8.833 4.023,9.857 5.286,9.857L7.572,9.857C8.833,9.857 9.857,8.833 9.857,7.572L9.857,5.286C9.857,4.023 8.833,3 7.572,3ZM8.714,16.714C8.714,17.345 8.202,17.857 7.572,17.857L5.286,17.857C4.655,17.857 4.143,17.345 4.143,16.714L4.143,14.428C4.143,13.798 4.655,13.286 5.286,13.286L7.572,13.286C8.202,13.286 8.714,13.798 8.714,14.428L8.714,16.714ZM7.572,12.143L5.286,12.143C4.023,12.143 3,13.167 3,14.428L3,16.714C3,17.977 4.023,19 5.286,19L7.572,19C8.833,19 9.857,17.977 9.857,16.714L9.857,14.428C9.857,13.167 8.833,12.143 7.572,12.143Z" style="fill:rgb(87,95,113);"/>
</svg>
